X:1     %Music
T:The Bonnie House o' Airlie
S:Charlotte Higgins
B:Traveller's Songs from England and Scotland
Z:Ewan MacColl and Peggy Seeger
F:http://www.folkinfo.org/songs
M:4/4     %Meter
L:1/8     %
K:F
C2 |F3/2G/ A3/2G/ F2 C3/2C/ | F3/2G/ F/D3/2 C2
w:It fell up-on a day and a bon-nie sum-mer day,
C3/2C/ |F2 F3/2F/ F2 (Ac) | d4 c2
w:When the clans were a-wa' wi'_ Char-lie
(Ac) |d2 (dc) A2 (Ac) |(BA) (GF) D2     
w:For_there a--rose a_ great_ dis--pute    
C2 |F2 F2 d2 (cA) |G4 F4 |]
w:Be-tween Ar-gyll and_ Air-lie.
%End of file